X:1
T:Cantan fra rami
T:Giammateo Asola
T:Source : Madrigali a due voci---Venetia---G.Vincenti---1587. Editor : André Vierendeels (25/04/17).
T:Notes : Original clef : C3  (Fuga di mezo tempo, una octava piu alto) Editorial accidentals above the staff
T:Cantan fra rami
T:©
T:©
T:©
C:Giammateo Asola
Z:©
%%score [ 1 2 ]
L:1/8
Q:1/4=120
M:4/4
K:F
V:1 treble nm="Soprano" snm="S"
V:2 treble-8 nm="Tenor" snm="T"
V:1
 z8 | F4 c2 c2 | d3 d c2 A2 | B2 B2 A4 | G4 z2 F2 | c2 c2 d2 d2 | c3 A B2 B2 | A4 G2 g2- | %8
w: |Can- tan fra|ra- mi gl'au- gel-|le- ti va-|ghi, az-|zu- ri'e bian- chi'e|ver- di'e ros- si'e|gal- li, mur-|
 gf f2 g2 e2 | d4 e2 c2 | d4 c4 | B4 A2 c2 | d2 e2 f3 e | d2 c2 d3 c | B2 A2 GABc | d4 G4 | z4 c4 | %17
w: * mu- ran- ti ru-|scel- li e|che- ti|la- ghi, di|lim- pi- dez- za|vin- co noi _|_ cri- stal- * * *|* li,|u-|
 c4 c2 f2- | f2 e2 f2 f2 | d2 c2 d3 c | B2 A2 BABc | d4 G2 g2 | g2 f2 e4 | d4 z2 c2 | g2 g2 f2 f2 | %25
w: na dol- ce'au-|* ra che ti|par che va- *||* ghi, a'un|mo- do sem-|pre e|dal suo stil non|
 e4 d4 | z2 c2 c2 A2 | c2 A2 G3 G | A2 F2 c4 | F4 z2 f2 | d2 d2 fedc | d2 g2 f3 e | d2 c2 d4 | %33
w: fal- li,|fac- ca si|l'a- ria tre- mo-|lar d'in tor-|no, fac-|ca si l'a- * * *|* ria tre- mo-|lar d'in- tor-|
 G2 A2 B2 G2 | c2 c2 B2 c2 | A2 F2 G2 A2 | F4 z2 F2 | B2 B2 A2 A2 | G4 z2 F2 | c2 c2 d2 d2 | %40
w: no, che non po-|tea no- iar cal-|do del gior- *|no, che|non po- tea no-|iar, che|non po- tea no-|
 c2 A2 B2 G2 | A3 G/F/ G4 | F2 f2 f2 e2 | d2 d2 c4 | z2 G2 ABcA | B2 B2 A2 A2 | G4 F4 | %47
w: iar cal- do del|gior- * * *|no, che non po-|tea no- iar,|che non po- tea ni-|ar cal- do del|gior- no,|
 z2 c2 d2 d2 | c3 A B2 G2 | A2 F2 G4 | F8 |] %51
w: che non po-|tea no- iar cal-|do del gior-|no.|
V:2
 F4 c2 c2 | d3 d c2 A2 | B2 B2 A4 | G4 z2 F2 | c2 c2 d2 d2 | c3 A B2 B2 | A4 G2 g2- | gf f2 g2 e2 | %8
w: Can- tan fra|ra- mi gl'au- gel-|le- ti va-|ghi, az-|zu- ri'e bian- chi'e|ver- di'e ros- si'e|gal- li, mur|_ mu- ran- ti ru-|
 d4 e2 c2 | d4 c4 | B4 A2 c2 | d2 e2 f3 e | d2 c2 d3 c | B2 A2 GABc | d4 G4 | z4 c4 | c4 c2 f2- | %17
w: scel- li e|che- ti|la- ghi, di|lim- pi- dez- za|vin- co noi _|_ cri- stal- * * *|* li,|u-|na dol- ce'au-|
 f2 e2 f2 f2 | d2 c2 d3 c | B2 A2 BABc | d4 G2 g2 | g2 f2 e4 | d4 z2 c2 | g2 g2 f2 f2 | e4 d4 | %25
w: * ra che ti|par che va- *||* ghi, a'un|mo- do sem-|pre e|dal suo stil non|fal- li,|
 z2 c2 c2 A2 | c2 A2 G3 G | A2 F2 c4 | F4 z2 f2 | d2 d2 fedc | d2 g2 f3 e | d2 c2 d4 | %32
w: fac- ca si|l'a- ria tre- mo-|lar d'in- tor-|no, fac-|ca si l'a- * * *|* ria tre- mo-|lar d'in- tor-|
 G2 A2 B2 G2 | c2 c2 B2 c2 | A2 F2 G2 A2 | F4 z2 F2 | B2 B2 A2 A2 | G4 z2 F2 | c2 c2 d2 d2 | %39
w: no, che non po-|tea no- iar cal-|do del gior- *|no, che|non po- tea no-|iar, che|non po- tea no-|
 c2 A2 B2 G2 | A3 G/F/ G4 | F2 f2 f2 e2 | d2 d2 c4 | z2 G2 ABcA | B2 B2 A2 A2 | G4 F4 | %46
w: iar cal- do del|gior- * * *|no, che non po-|tea no- iar,|che non po- tea ni-|iar cal- do del|gior- no,|
 z2 c2 d2 d2 | c3 A B2 G2 | A2 F2 G4 | F2 f4 e2 | f8 |] %51
w: che non po-|tea no- iar cal-|do del gior-||no.|

